X: 225
T: You daiyuan
%%abc-version 2.0
%%abcx-abcm2ps-target-version 5.9.1 (29 Sep 2008)
%%abc-creator hum2abc beta
%%abcx-conversion-date 2013/10/02 07:52:29
%%abc-edited-by Helmut Schaffrath
%%humdrum-veritas 2799845189
%%humdrum-veritas-data 4100258606
%%continueall 1
%%barnumbers 0
L: 1/8
M: 2/4
K: G
z d d d [I:setbarnb 1]| 
d e d c | 
A c d c | 
A AD2 | 
d2c A | 
G AD2 | 
F> GD2 | 
F> G A d | 
d GA2 | 
d d c d | 
c cA2 | 
A D F G | 
A2d2 | 
F A G E | 
D4 |]  



